X:419
T:Mad’e Catalani’s Favourite. RH.419
R:jig
S:Rev.R.Harrison’s MS,c1815,Cumbria
O:England
A:Temple Sowerby,Cumbria
Z:vmp.Simon Wilson. Review PJH, 2008.
M:6/8
L:1/8
Q:3/8=120
K:G
D|G2G G2A|B2B G2G|A2A DEF|G2F G2D|!
G2G G2A|B2B G2G|A2A F2F|G3 G2:|!
|:B|BdB A2A|(AcA) G2G|GAB BAG|G3 F2d|!
d2d e2e|f2f g2b|a2a fef|ggg g2|]

